!!!!SEGMENT: pl-sa--11-a-i-11--001-001_anonim--passio-domini-nostri-passio-domini-nostri.krn
!!!cenid: 18xx:1323
!!!COM: Anonim
!!!COM-rismID: pe30004985
!!!CDT:
!!!CNT:
!!!OPR: Passio Domini Nostri
!!!OTL: Passio Domini Nostri
!!!OMV: 001
!!!PDT: 1815
!!!AGN: Sacred
!!!YEC: Copyright 2022 Narodowy Instytut Fryderyka Chopina (https://polishscores.org)
!!!YEM: License CC-BY-4.0 (https://creativecommons.org/licenses/by/4.0)
!!!SMS-siglum: PL-SA
!!!SMS-shelfmark: 11/A I 11
!!!SMS-shelfwork: 001-001 M
!!!SMS-variant:
!!!SMS-altvar:
!!!NIFC-rismSourceID: 1001076834
!!!NIFC-rismChildID: 1001076834
!!!NIFC-islandoraID: none
!!!URL-pdf-islandora:
!!!URL-scan: https://bc.bdsandomierz.pl/dlibra/publication/1277/edition/1245/content @EN{Scan in the Sandomierz Diocese Digital Library} @PL{Skany w portalu Cyfrowa Biblioteka Diecezjalna w Sandomierzu}
!!!IIIF:
!!!ONB-nifc: UWAGA: części Pasji: 1. Pars I – Passio Domini nostri, 2. Pars I – Plankt – Witaj Jezu, 3. Pars II – Apprehendit, 4. Pars II – Tolle crucifige, 5. Pars II – Plankt – Oto przybity do krzyża, 6. Pars III – Orabat
!!!AIN: 1 organ 2 soprn 2 violn
!!!key: g
**kern	**kern	**dynam	**kern	**dynam	**kern	**text	**kern	**text
*part5	*part4	*	*part3	*	*part2	*	*part1	*
*staff5	*staff4	*	*staff3	*	*staff2	*	*staff1	*
*I"Organo.	*I"Violino Secundo.	*	*I"Violino Primo.	*	*I"Canto 2do.	*	*I"Canto Primo.	*
*I'Org	*I'Vl II	*	*I'Vl I	*	*I'S II	*	*I'S I	*
*Iorgan	*Ivioln	*	*Ivioln	*	*Isoprn	*	*Isoprn	*
*ICklav	*ICstr	*	*ICstr	*	*ICvox	*	*ICvox	*
*clefF4	*clefG2	*	*clefG2	*	*clefC1	*	*clefC1	*
*k[b-e-]	*k[b-e-]	*	*k[b-e-]	*	*k[b-e-]	*	*k[b-e-]	*
*g:	*g:	*	*g:	*	*g:	*	*g:	*
*M2/2	*M2/2	*	*M2/2	*	*M2/2	*	*M2/2	*
*met(c|)	*met(c|)	*	*met(c|)	*	*met(c|)	*	*met(c|)	*
=1	=1	=1	=1	=1	=1	=1	=1	=1
*2\right	*2\right	*	*2\right	*	*2\right	*	*2\right	*
!	!	!	!	!	!LO:TX:t=P:znaki:problem= ee- zamiast e-, wykreślony znak a-	!	!LO:TX:t=P:znaki:problem= ee- zamiast e-	!
!LO:TX:t=P::problem=kolejnosć znaków&colon; E- B-, B- zamiast BB-, wykreślony znak A-	!LO:TX:t=P:problem=kolejność znaków&colon; ee- b-	!	!	!	!LO:TX:a:t=Tardiſsime	!	!LO:TX:a:t=Tardiſsime	!
!LO:TX:a:t=Tardiſsimo.	!LO:TX:a:t=Tardiſsime	!	!LO:TX:a:t=Tardiſsime\nPars. 1.	!	!LO:TX:a:t=8	!	!LO:TX:a:t=8	!
4r	4r	.	2g/	.	1r	.	1r	.
4G\	4B-/ 4d	.	.	.	.	.	.	.
4G\	4B-/ 4d	.	2dd\	.	.	.	.	.
4G\	4B-/ 4d	.	.	.	.	.	.	.
=2	=2	=2	=2	=2	=2	=2	=2	=2
4r	4r	.	2b-\	.	1r	.	1r	.
4G\	4B-/ 4e-	.	.	.	.	.	.	.
4G\	4B-/ 4e-	.	2g/	.	.	.	.	.
4G\	4B-/ 4e-	.	.	.	.	.	.	.
=3	=3	=3	=3	=3	=3	=3	=3	=3
4r	4r	.	2f#X/	.	1r	.	1r	.
4F#X\	4A/ 4d	.	.	.	.	.	.	.
4F#\	4A/ 4d	.	2ee-\	.	.	.	.	.
4F#\	4A/ 4d	.	.	.	.	.	.	.
=4	=4	=4	=4	=4	=4	=4	=4	=4
4r	4r	.	2cc\	.	1r	.	1r	.
4F#X\	4A/ 4d	.	.	.	.	.	.	.
4F#\	4A/ 4d	.	2a/	.	.	.	.	.
4F#\	4A/ 4d	.	.	.	.	.	.	.
=5	=5	=5	=5	=5	=5	=5	=5	=5
4r	4.g/	.	4.b-\	.	1r	.	1r	.
4G\	.	.	.	.	.	.	.	.
.	8f#X/	.	8a\	.	.	.	.	.
4G\	4g/	.	4g/	.	.	.	.	.
4G\	4g/	.	4b-/	.	.	.	.	.
=6	=6	=6	=6	=6	=6	=6	=6	=6
4r	4.b-/	.	4.dd\	.	1r	.	1r	.
4G\	.	.	.	.	.	.	.	.
.	8a/	.	8cc\	.	.	.	.	.
4G\	4g/	.	4b-\	.	.	.	.	.
4G\	4f#X/	.	4a\	.	.	.	.	.
=7	=7	=7	=7	=7	=7	=7	=7	=7
4D\	4f#X/	.	4f#X/	.	1r	.	1r	.
4D\	4a/	.	4a/	.	.	.	.	.
4F#X\	4dd\	.	4dd\	.	.	.	.	.
4A\	4dd\	.	4dd\	.	.	.	.	.
=8	=8	=8	=8	=8	=8	=8	=8	=8
4D\	2d/	.	2d/	.	1r	.	1r	.
4d\	.	.	.	.	.	.	.	.
8d\L	2r	.	2r	.	.	.	.	.
8c\	.	.	.	.	.	.	.	.
8B-\	.	.	.	.	.	.	.	.
8A\J	.	.	.	.	.	.	.	.
=9	=9	=9	=9	=9	=9	=9	=9	=9
2G\	2b-/	pp	2dd\	pp	2b-\	Paſ-	2dd\	Paſ-
2r	2a/	.	2cc\	.	2a\	-sio	2cc\	-sio
=10	=10	=10	=10	=10	=10	=10	=10	=10
2G\	2g/	.	4b-/	.	4g\	Do-	4b-\	Do-
.	.	.	8a/L	.	8g\	-mi-	8a\L	-mi-
.	.	.	8g/J	.	8g\	-ni	8g\J	-ni
2r	4cc\	.	4ee-\	.	4cc\	Nos-	4ee-\	nos-
.	4b-\	.	4dd\	.	4b-\	-tri	4dd\	-tri
=11	=11	=11	=11	=11	=11	=11	=11	=11
4D\	4a/	.	4cc\	.	2d/	Je-	4cc\	Je-
4D\	4g/	.	4b-\	.	.	.	4b-\	.
4D\	4f#X/	.	4a\	.	4d/	-su	4a\	.
4D\	4g/	.	4g/	.	4d/	.	4g\	-su
=12	=12	=12	=12	=12	=12	=12	=12	=12
2D\	2B-/	.	2g/	.	2d/	Chri-	2g/	chri-
2D\	2A/	.	2f#X/	.	2d/	-sti.	2f#X/	-sti
=13	=13	=13	=13	=13	=13	=13	=13	=13
!	!	!	!	!	!	!	!LO:TX:a:t=3.	!
2GG/	4g/	.	4g/	.	4g\	Se-	1r	.
.	4g/	.	4b-/	.	4b-\	.	.	.
2r	4b-/	.	4dd/	.	4dd\	-cun-	.	.
.	4a/	.	4cc/	.	4cc\	-dum	.	.
=14	=14	=14	=14	=14	=14	=14	=14	=14
4r	2g/	.	2b-/	.	2b-\	Ma-	1r	.
4GG/	.	.	.	.	.	.	.	.
4GG/	2g/	.	2b-/	.	2b-\	-the-	.	.
4GG/	.	.	.	.	.	.	.	.
!	!	!	!LO:LB:g=original	!	!	!	!	!
=15	=15	=15	=15	=15	=15	=15	=15	=15
4D\	4f#X/	.	4a/	.	2a\	-um	1r	.
4D\	4d/	.	4d/	.	.	.	.	.
4D\	4f#/	.	4f#X/	.	2r	.	.	.
4D\	4a/	.	4a/	.	.	.	.	.
!	!LO:LB:g=original	!	!	!	!	!	!	!
=16	=16	=16	=16	=16	=16	=16	=16	=16
2BB-/	2g/	.	2b-\	.	2d/	In	2b-\	In
2B-\	4b-/	.	4dd\	.	4f/	il-	4dd\	il-
.	4g/	.	4b-\	.	4d/	-lo	4b-\	-lo
=17	=17	=17	=17	=17	=17	=17	=17	=17
4r	4g/	.	4b-/	.	4d/	tem-	4b-\	tem-
!LO:SIC:v:s=4F#	!	!	!	!	!	!	!	!
4F\	4f#X/	.	4a/	.	4c/	-po-	4a\	-po-
4An\	2f#/	.	2a/	.	2c/	-re	2a\	-re
4c\	.	.	.	.	.	.	.	.
!LO:LB:g=original	!	!	!	!	!	!	!	!
=18	=18	=18	=18	=18	=18	=18	=18	=18
4c\	4cc\	.	4ee-\	.	4cc\	Di-	4ee-\	Di-
4B-\	4cc\	.	4ee-\	.	4cc\	-xit	4ee-\	-xit
4An\	4cc\	.	4ee-\	.	4cc\	Je-	4ee-\	Je-
!LO:SIC:v:s=4F	!	!	!	!	!	!	!	!
!LO:TX:a:t=f.	!	!	!	!	!	!	!	!
4G\	4cc\	.	4ee-\	.	4cc\	-sus	4ee-\	-sus
!	!	!	!	!	!LO:LB:g=original	!	!	!
=19	=19	=19	=19	=19	=19	=19	=19	=19
4B-\	4b-\	.	4dd\	.	4b-\	dis-	4dd\	dis-
4F\	4b-\	.	4dd\	.	4b-\	-ci-	4dd\	-ci-
4D\	4b-\	.	4dd\	.	4b-\	-pu-	4dd\	-pu-
4BB-/	4b-\	.	4dd\	.	4b-\	-lis	4dd\	-lis
!	!	!	!	!	!	!	!LO:LB:g=original	!
=20	=20	=20	=20	=20	=20	=20	=20	=20
4r	8b-\L	.	8dd\L	.	8b-\L	Su-	8dd\L	Su-
.	8a\J	.	8cc\J	.	8a\J	.	8cc\J	.
4F\	4a/	.	4cc\	.	4a\	-is	4cc\	-is
2FF/	8a/L	.	8cc\L	.	2r	.	2r	.
.	8cc/	.	8ee-\	.	.	.	.	.
.	8b-/	.	8dd\	.	.	.	.	.
.	8a/J	.	8cc\J	.	.	.	.	.
=21	=21	=21	=21	=21	=21	=21	=21	=21
4r	4.dd\	.	4.ff\	.	4.dd\	Sci-	4.ff\	Sci-
4BB-/	.	.	.	.	.	.	.	.
.	8cc\	.	8ee-\	.	8cc\	.	8ee-\	-tis
4D/	2b-\	.	2dd\	.	2b-\	-tis	2dd\	.
4F/	.	.	.	.	.	.	.	.
=22	=22	=22	=22	=22	=22	=22	=22	=22
4r	4.dd\	.	4.ff\	.	4.dd\	Sci-	4.ff\	Sci-
4BB-/	.	.	.	.	.	.	.	.
.	8cc\	.	8ee-\	.	8cc\	-tis	8ee-\	-tis
4D/	2b-\	.	2dd\	.	2b-\	.	2dd\	.
4F/	.	.	.	.	.	.	.	.
=23	=23	=23	=23	=23	=23	=23	=23	=23
4F\	4cc\	.	4ee-\	.	4cc\	qui-	4ee-\	qvi-
4c\	4cc\	.	4ee-\	.	4cc\	-a	4ee-\	-a
4A\	2cc\	.	2ee-\	.	2cc\	post	2ee-\	post
4F\	.	.	.	.	.	.	.	.
=24	=24	=24	=24	=24	=24	=24	=24	=24
4BB-/	4b-/	.	4dd\	.	4b-\	bi-	4dd\	bi-
!	!	!	!	!	!	!	!	!LO:MO:mod=duum
4B-\	4b-/	.	4dd\	.	4b-\	-dum	4dd\	-dum
4F\	4a/	.	4cc\	.	4a\	Pas-	4cc\	Pas-
4D\	4g/	.	4b-\	.	4g\	-cha	4b-\	-cha
=25	=25	=25	=25	=25	=25	=25	=25	=25
4r	2g/	.	2b-/	.	2g/	fi-	2b-\	fi-
4D\	.	.	.	.	.	.	.	.
4D\	2f#X/	.	2a/	.	2f#X/	-et	2a\	-et
4D\	.	.	.	.	.	.	.	.
=26	=26	=26	=26	=26	=26	=26	=26	=26
!	!	!	!	!	!LO:TX:a:t=6	!	!LO:TX:a:t=6	!
2D\	4f#X/	f	8d/L	f	1r	.	1r	.
.	.	.	8f#X/	.	.	.	.	.
.	4d/	.	8a/	.	.	.	.	.
.	.	.	8cc/J	.	.	.	.	.
2r	4f#/	.	8cc/L	.	.	.	.	.
.	.	.	8b-/	.	.	.	.	.
.	4d/	.	8a/	.	.	.	.	.
.	.	.	8g/J	.	.	.	.	.
=27	=27	=27	=27	=27	=27	=27	=27	=27
2GG/	4g/	.	8g/L	.	1r	.	1r	.
.	.	.	8a/	.	.	.	.	.
.	4d/	.	8b-/	.	.	.	.	.
.	.	.	8cc/J	.	.	.	.	.
2r	4g/	.	8dd\L	.	.	.	.	.
.	.	.	8b-\	.	.	.	.	.
.	4d/	.	8a\	.	.	.	.	.
.	.	.	8g\J	.	.	.	.	.
=28	=28	=28	=28	=28	=28	=28	=28	=28
4r	4cc\	.	4ee-\	.	1r	.	1r	.
4c\	4a\	.	4cc\	.	.	.	.	.
4A\	8a\L	.	8cc\L	.	.	.	.	.
.	8cc\	.	8ee-\	.	.	.	.	.
4F\	8b-\	.	8dd\	.	.	.	.	.
.	8a\J	.	8cc\J	.	.	.	.	.
=29	=29	=29	=29	=29	=29	=29	=29	=29
4r	4b-/	.	4dd\	.	1r	.	1r	.
4B-\	4g/	.	4b-\	.	.	.	.	.
!LO:SIC:v:s=4G	!	!	!	!	!	!	!	!
4F\	8g/L	.	8b-\L	.	.	.	.	.
.	8b-/	.	8dd\	.	.	.	.	.
4D\	8a/	.	8cc\	.	.	.	.	.
.	8g/J	.	8b-\J	.	.	.	.	.
!	!	!	!LO:LB:g=original	!	!	!	!	!
=30	=30	=30	=30	=30	=30	=30	=30	=30
4r	4a/	.	4cc\	.	1r	.	1r	.
4D\	4f#X/	.	4a\	.	.	.	.	.
4F#X\	8f#/L	.	8a/L	.	.	.	.	.
.	8a/	.	8cc/	.	.	.	.	.
4A\	8g/	.	8b-/	.	.	.	.	.
.	8f#/J	.	8a/J	.	.	.	.	.
=31	=31	=31	=31	=31	=31	=31	=31	=31
2G\	2g/	.	2g/	.	1r	.	1r	.
2GG/	2r	.	2r	.	.	.	.	.
!	!LO:LB:g=original	!	!	!	!	!	!	!
=32	=32	=32	=32	=32	=32	=32	=32	=32
2D\	2f#X/	.	2dd\	pp	2f#X/	et	2dd\	et
2r	4f#/	.	4dd\	.	4f#/	Fi-	4dd\	Fi-
.	4f#/	.	4dd\	.	4f#/	-lius	4dd\	-lius
=33	=33	=33	=33	=33	=33	=33	=33	=33
!	!LO:SIC:v:s=4f#	!	!	!	!	!	!	!
4r	4f/	.	4dd\	.	4f#X/	Ho-	4dd\	Ho-
!	!	!	!	!	!LO:SIC:v:s=4en	!	!	!
4D\	4en/	.	4cc#X\	.	4e-/	-mi-	4cc#X\	-mi-
!	!	!	!	!	!LO:SIC:v:s=2en	!	!	!
4F#X\	2e/	.	2cc#\	.	2e-/	-nis	2cc#\	-nis
4A\	.	.	.	.	.	.	.	.
!	!	!	!	!	!LO:LB:g=original	!	!	!
=34	=34	=34	=34	=34	=34	=34	=34	=34
2F#X\	2a/	.	2ccn\	.	2a\	tra-	2ccn\	tra-
2r	4a/	.	4cc\	.	4a\	-de-	4cc\	-de-
.	4a/	.	4cc\	.	4a\	-tur	4cc\	-tur
!	!	!	!	!	!	!	!LO:LB:g=original	!
=35	=35	=35	=35	=35	=35	=35	=35	=35
4r	4cc'\	.	4cc\	.	4g\	ut	4cc\	ut
4D\	4b-'\	.	4b-\	.	4g\	cru-	4b-\	cru-
4D\	4a'\	.	4a\	.	4g\	-ci-	4a\	-ci-
4D\	4g'\	.	4g\	.	4g\	-fi-	4g\	-fi-
=36	=36	=36	=36	=36	=36	=36	=36	=36
4r	2g/	.	2b-/	.	2g/	-ga-	2b-\	-ga-
4G\	.	.	.	.	.	.	.	.
4d\	2f#X/	.	2a/	.	2f#X/	-tur	2a\	-tur
4D\	.	.	.	.	.	.	.	.
!LO:LB:g=original	!	!	!	!	!	!	!	!
=37	=37	=37	=37	=37	=37	=37	=37	=37
!	!	!	!	!	!	!	!LO:TX:a:t=2	!
4d\	4dd'\	.	4dd\	.	4dd\	ut	1r	.
4A\	4a'\	.	4a\	.	4a\	cru-	.	.
4B-\	4b-'\	.	4b-\	.	4b-\	-ci-	.	.
4G\	4g'\	.	4g\	.	4g\	-fi-	.	.
=38	=38	=38	=38	=38	=38	=38	=38	=38
4F#X\	4f#X'>/	.	4f#X/	.	4f#X/	-ga-	1r	.
4D\	4d'/	.	4d/	.	4d/	-tur	.	.
4d\	4dd'\	.	4dd\	.	2r	.	.	.
4c\	4cc'\	.	4cc\	.	.	.	.	.
=39	=39	=39	=39	=39	=39	=39	=39	=39
2B-\	2d/	.	2b-\	.	2d/	Prin-	2b-\	Prin-
2r	4d/	.	4b-\	.	4d/	-ci-	4b-\	-ci-
!	!	!	!	!	!LO:SIC:v:s=4f#	!	!	!
.	4f#X/	.	4cc\	.	4f/	-pes	4cc\	-pes
=40	=40	=40	=40	=40	=40	=40	=40	=40
2BB-/	4b-\	.	4dd\	.	4b-\	Sa-	4dd\	Sa-
!	!	!	!	!	!	!	!	!LO:MO:mod=cer
.	4cc\	.	4ee-\	.	4cc\	-cer-	4ee-\	-cor-
2r	2dd\	.	2ff\	.	2dd\	-do-	2ff\	-do-
=41	=41	=41	=41	=41	=41	=41	=41	=41
4BB-/	4dd\	.	4ff\	.	4dd\	-tum	4ff\	-tum
4BB-/	8cc\L	.	8ee-\L	.	8cc\L	et	8ee-\L	et
.	8b-\J	.	8dd\J	.	8b-\J	se-	8dd\J	se-
4BB-/	4cc\	.	4ee-\	.	4cc\	-nio-	4ee-\	-nio-
4BB-/	4a\	.	4cc\	.	4a\	-res	4cc\	-res
=42	=42	=42	=42	=42	=42	=42	=42	=42
4r	2b-\	.	2dd\	.	2b-\	et	2dd\	et
4BB-/	.	.	.	.	.	.	.	.
4D/	2b-\	.	2dd\	.	2b-\	Se	2dd\	se
4F/	.	.	.	.	.	.	.	.
=43	=43	=43	=43	=43	=43	=43	=43	=43
2B-\	4b-\	.	4dd\	.	4b-\	et	4dd\	et
.	4b-\	.	4dd\	.	4b-\	Se-	4dd\	se-
2r	4cc\	.	4ee-\	.	4cc\	-nio-	4ee-\	-nio-
.	4b-\	.	4dd\	.	4b-\	-res	4dd\	-res
!	!	!	!	!	!LO:LB:g=original	!	!	!
=44	=44	=44	=44	=44	=44	=44	=44	=44
4r	4.a/	.	4.cc\	.	4.a\	po-	4.cc\	po-
4c\	.	.	.	.	.	.	.	.
.	8a/	.	8cc\	.	8a\	-pu-	8cc\	-pu-
4A\	2a/	.	2cc\	.	2a\	-li	2cc\	-li
4F\	.	.	.	.	.	.	.	.
=45	=45	=45	=45	=45	=45	=45	=45	=45
2F\	4a/	.	4cc\	.	4a\	et	4cc\	et
.	4a/	.	4cc\	.	4a\	con-	4cc\	con-
2r	4b-/	.	4dd\	.	4b-\	-si-	4dd\	-si-
.	4a/	.	4cc\	.	4a\	-lium	4cc\	-lium
!	!	!	!	!	!	!	!LO:LB:g=original	!
=46	=46	=46	=46	=46	=46	=46	=46	=46
4B-\	4.g/	.	4.b-\	.	4.g\	fe-	4.b-\	fe-
4F\	.	.	.	.	.	.	.	.
.	8g/	.	8b-\	.	8g\	-ce-	8b-\	-ce-
4D\	2g/	.	2b-/	.	2g\	-runt	2b-\	-runt
4BB-/	.	.	.	.	.	.	.	.
!	!	!	!LO:LB:g=original	!	!	!	!	!
=47	=47	=47	=47	=47	=47	=47	=47	=47
4r	4f#X/	.	4a/	.	4f#X/	ut	4a\	ut
4D\	4f#/	.	4a/	.	4f#/	Je-	4a\	Je-
4F#X\	4a/	.	4cc\	.	4a\	-sum	4cc\	-sum
4D\	8g/L	.	8b-/L	.	8g\L	.	8b-\L	.
.	8f#/J	.	8a/J	.	8f#X\J	.	8a\J	.
!	!LO:LB:g=original	!	!	!	!	!	!	!
=48	=48	=48	=48	=48	=48	=48	=48	=48
4r	4g/	.	4b-\	.	4g\	do-	4b-\	do-
4D\	4a/	.	4cc\	.	4a\	.	4cc\	.
4G\	2b-/	.	2dd\	.	2b-\	-lo	2dd\	-lo
4D\	.	.	.	.	.	.	.	.
=49	=49	=49	=49	=49	=49	=49	=49	=49
4D\	2f#X/	.	2dd\	.	2b-\	te-	2dd\	te-
4D\	.	.	.	.	.	.	.	.
4D\	4f#/	.	4dd\	.	4b-\	-ne-	4dd\	-ne-
!	!	!	!	!	!	!LO:MO:mod=rent	!	!LO:MO:mod=rent
4D\	4f#/	.	4dd\	.	4b-\	-ret	4dd\	-ret
=50	=50	=50	=50	=50	=50	=50	=50	=50
!LO:SIC:v:s=4En	!	!	!	!	!	!	!	!
4E-\	4en/	.	4cc#X\	.	4a\	et	4cc#X\	et
!LO:SIC:v:s=4En	!	!	!	!	!	!	!	!
4E-\	4e/	.	4cc#\	.	4a\	oc-	4cc#\	oc-
!LO:SIC:v:s=4En	!	!	!	!	!	!	!	!
4E-\	8e/L	.	8cc#\L	.	8a\L	-ci-	8cc#\L	-ci-
.	8d/J	.	8bn\J	.	8g\J	-de-	8bn\J	-de-
!LO:SIC:v:s=4En	!	!	!	!	!	!LO:MO:mod=rent	!	!LO:MO:mod=rent
4E-\	4e/	.	4cc#\	.	4a\	-ret	4cc#\	-ret
=51	=51	=51	=51	=51	=51	=51	=51	=51
4F#X\	2a/	.	2ccn\	.	2a\	ut	2ccn\	ut
4F#\	.	.	.	.	.	.	.	.
4F#\	4a/	.	4cc\	.	4a\	Je-	4cc\	Je-
4F#\	4a/	.	4cc\	.	4a\	-sum	4cc\	-sum
=52	=52	=52	=52	=52	=52	=52	=52	=52
4G\	4g/	.	4b-X/	.	4g\	do-	4b-X\	do-
4G\	4g/	.	4b-/	.	4g\	-lo	4b-\	-lo
4G\	8g/L	.	8b-/L	.	8g/L	te-	8b-\L	te-
.	8f#X/J	.	8a/J	.	8f#X/J	-ne-	8a\J	-ne-
!	!	!	!	!	!	!LO:MO:mod=rent	!	!LO:MO:mod=rent
4G\	4g/	.	4b-/	.	4g/	-ret	4b-\	-ret
!	!	!	!	!	!LO:LB:g=original	!	!	!
=53	=53	=53	=53	=53	=53	=53	=53	=53
4D\	4f#X/	.	4a/	.	4f#X/	et	4a\	et
4D\	4b-/	.	4dd\	.	4b-\	oc-	4dd\	oc-
4D\	4a/	.	4cc\	.	4a\	-ci-	4cc\	-ci-
4D\	4g/	.	4b-\	.	4g\	-de-	4b-\	-de-
=54	=54	=54	=54	=54	=54	=54	=54	=54
!	!	!	!	!	!	!LO:MO:mod=rent	!	!LO:MO:mod=rent
2D\	2f#X;/	.	2a/	.	2f#X/	-ret	2a;\	-ret
!	!LO:TX:a:t=vi-	!	!	!	!	!	!	!
2r	2r	.	2r	.	2r;	.	2r	.
!	!LO:LB:g=original	!	!	!	!	!	!LO:LB:g=original	!
=55||	=55||	=55||	=55||	=55||	=55||	=55||	=55||	=55||
*M3/4	*M3/4	*	*M3/4	*	*M3/4	*	*M3/4	*
!	!LO:TX:t=P:problem=fragment Ne forte wpisany po częśći Witaj Jezu	!	!	!	!	!	!	!
!	!LO:TX:a:t=-de	!	!LO:TX:a:t=Tarde	!	!	!	!	!
!LO:TX:b:t=Ne forte__	!LO:TX:b:t=Ne forte tumultus.	!	!LO:TX:b:t=Ne forte tumultus	!	!	!	!	!
4BB-/	8d/L	.	8b-\L	.	4b-\	Ne	8b-\L	Ne
.	8f/J	.	8dd\J	.	.	.	8dd\J	.
4r	4dd\	.	4ff\	.	4dd\	for-	4ff\	for-
4r	4dd\	.	4ff\	.	4dd\	-te	4ff\	-te
=56	=56	=56	=56	=56	=56	=56	=56	=56
4BB-/	8dd\L	.	8ff\L	.	8dd\L	tu-	8ff\L	tu-
.	8cc\	.	8ee-\	.	8cc\J	.	8ee-\J	.
4r	8cc\	.	8ee-\	.	8cc\L	-mul-	8ee-\L	-mul-
.	8b-\J	.	8dd\J	.	8b-\J	.	8dd\J	.
4r	4b-\	.	4dd\	.	4b-\	-tus	4dd\	-tus
=57	=57	=57	=57	=57	=57	=57	=57	=57
4BB-/	8dd\L	.	8ff\L	.	8dd\L	fi-	8ff\L	fi-
.	8cc\J	.	8ee-\J	.	8cc\J	-e-	8ee-\J	-e-
4D/	4cc\	.	4ee-\	.	4cc\	-ret	4ee-\	-ret
4BB-/	4b-\	.	4dd\	.	4b-\	in	4dd\	in
!LO:LB:g=original	!	!	!	!	!	!	!	!
=58	=58	=58	=58	=58	=58	=58	=58	=58
4r	8b-\L	.	8dd\L	.	8b-\L	po-	8dd\L	po-
.	8a\J	.	8cc\J	.	8a\J	-pu-	8cc\J	-pu-
4F\	4a/	.	4cc\	.	4a\	-lo	4cc\	-lo
4FF/	4r	.	4r	.	4r	.	4r	.
=59	=59	=59	=59	=59	=59	=59	=59	=59
4F\	8a/L	.	8cc\L	.	8a\	abi-	8cc\	abi-
.	8a/J	.	8cc\J	.	8a\	[i]t	8cc\	-it
4A\	4cc\	.	4ee-\	.	4cc\	au-	4ee-\	au-
4F\	4a/	.	4cc\	.	4a\	-tem	4cc\	-tem
=60	=60	=60	=60	=60	=60	=60	=60	=60
4B-\	4b-\	.	4dd\	.	4b-\	Ju-	4dd\	Ju-
4F\	2dd\	.	2ff\	.	2dd\	-das	2ff\	-das
4BB-/	.	.	.	.	.	.	.	.
!	!	!	!	!	!LO:LB:g=original	!	!	!
=61	=61	=61	=61	=61	=61	=61	=61	=61
4BB-/	8dd\L	.	8ff\L	.	8dd\	ad	8ff\	ad
!	!	!	!LO:TX:t=P:problem=8ee poprawione na 8dd	!	!	!	!	!
!	!	!	!LO:TX:a:t=d	!	!	!	!	!
.	8b-\	.	8dd\	.	8b-\	Prin-	8dd\	Prin-
4r	8cc\	.	8ee-\	.	8cc\	-ci-	8ee-\	-ci-
.	8dd\	.	8ff\	.	8dd\	-pes	8ff\	-pes
4r	8ee-\	.	8gg\	.	8ee-\	Sa-	8gg\	Sa-
.	8dd\J	.	8ff\J	.	8dd\	-cer-	8ff\	-cer-
=62	=62	=62	=62	=62	=62	=62	=62	=62
8r	8dd\L	.	8ff\L	.	8dd\L	-do-	8ff\L	-do-
8F\L	8cc\J	.	8ee-\J	.	8cc\J	.	8ee-\J	.
8A\	2cc\	.	2ee-\	.	2cc\	-tum	2ee-\	-tum
8c\	.	.	.	.	.	.	.	.
8A\	.	.	.	.	.	.	.	.
8F\J	.	.	.	.	.	.	.	.
!	!	!	!LO:LB:g=original	!	!	!	!LO:LB:g=original	!
=63	=63	=63	=63	=63	=63	=63	=63	=63
4F\	8cc\L	.	8ee-\L	.	8cc\	ad	8ee-\	ad
.	8a\	.	8cc\	.	8a\	prin-	8cc\	Prin-
4r	8b-\	.	8dd\	.	8b-\	-ci-	8dd\	-ci-
.	8cc\	.	8ee-\	.	8cc\	-pes	8ee-\	-pes
4r	8dd\	.	8ff\	.	8dd\	Sa-	8ff\	Sa-
.	8cc\J	.	8ee-\J	.	8cc\	-cer-	8ee-\	-cer-
=64	=64	=64	=64	=64	=64	=64	=64	=64
8r	8cc\L	.	8ee-\L	.	8cc\L	-do-	8ee-\L	-do-
8BB-/L	8b-\J	.	8dd\J	.	8b-\J	.	8dd\J	.
8D/	2b-\	.	2dd\	.	2b-\	-tum	2dd\	-tum
8F/	.	.	.	.	.	.	.	.
8D/	.	.	.	.	.	.	.	.
8BB-/J	.	.	.	.	.	.	.	.
=65	=65	=65	=65	=65	=65	=65	=65	=65
4F\	4a/	.	4cc\	.	4a\	et	4cc\	et
4r	4a/	.	4ff\	.	4a\	a-	4ff\	a-
4r	4a/	.	4a\	.	4a\	-it	4a\	-it
=66	=66	=66	=66	=66	=66	=66	=66	=66
8r	8a/L	.	8cc\L	.	8a\L	il-	8cc\L	il-
8C/L	8g/J	.	8b-\J	.	8g\J	.	8b-\J	.
8En/	2g/	.	2b-/	.	2g/	-lis	2b-\	-lis
8G/	.	.	.	.	.	.	.	.
8E/	.	.	.	.	.	.	.	.
8C/J	.	.	.	.	.	.	.	.
=67	=67	=67	=67	=67	=67	=67	=67	=67
!	!	!	!	!	!LO:TX:b:t=d	!	!	!
4C/	4g/	.	4b-\	.	4d/ 4g	ad	4b-\	ad
!	!	!	!	!	!LO:TX:b:t=f	!	!	!
4r	4a/	.	4cc\	.	4f/ 4b-	il-	4cc\	il-
!	!	!	!	!	!LO:TX:b:t=d	!	!	!
4r	4g/	.	4b-\	.	4d/ 4g	-li	4b-\	-li
=68	=68	=68	=68	=68	=68	=68	=68	=68
8r	8f/L	.	8a/L	.	8f/	con-	8a\L	con-
8FF/L	8a/J	.	8cc/J	.	8a/	.	8cc\J	.
*	*tremolo	*	*	*	*	*	*	*
!	!	!	!	!	!LO:LB:g=original	!	!	!
*	*	*	*tremolo	*	*	*	*	*
8AA/	8a/L	.	8cc\L	.	8a/	-sti-	8cc\	-sti-
8C/	8a/	.	8cc\	.	8a/	-tu-	8cc\	-tu-
8AA/	8a/	.	8cc\	.	8a/	-e-	8cc\	-e-
8FF/J	8a/J	.	8cc\J	.	8a/	-runt	8cc\	-runt
*	*	*	*Xtremolo	*	*	*	*	*
*	*Xtremolo	*	*	*	*	*	*	*
=69	=69	=69	=69	=69	=69	=69	=69	=69
*tremolo	*	*	*	*	*	*	*	*
8FF/L	8b-/L	.	8dd\L	.	8b-\L	ei	8dd\L	ei
8FF/	8a/J	.	8cc\J	.	8a\J	tri-	8cc\J	tri-
8FF/	4g/	.	4b-\	.	4g/	-gin-	4b-\	-gin-
8FF/	.	.	.	.	.	.	.	.
8FF/	8.f/L	.	8.a/L	.	8.f/	-ta	8.a\	-ta
8FF/J	.	.	.	.	.	.	.	.
.	16f/Jk	.	16a/Jk	.	16f/	ar-	16a\	ar-
=70	=70	=70	=70	=70	=70	=70	=70	=70
4C/	4f/	.	4a/	.	4f/	-gen-	4a\	-gen-
!	!LO:SIC:v:s=4en	!	!	!	!LO:SIC:v:s=4en	!	!	!
8CC/L	4e-/	.	4g/	.	4e-/	-teos	4g\	-teos
8C/	.	.	.	.	.	.	.	.
8BB-/	4r	.	4r	.	4r	.	4r	.
8GG/J	.	.	.	.	.	.	.	.
!	!	!	!	!	!	!	!LO:LB:g=original	!
=71	=71	=71	=71	=71	=71	=71	=71	=71
!	!	!	!	!	!LO:N:vis=8.	!	!	!
8FF/L	8a/L	.	8cc\L	.	8a\	de-	8cc\	de-
8FF/	8g/J	.	8b-\J	.	8g\	-dit	8b-\	-dit
8FF/	4f/	.	4a/	.	4f/	er-	4a\	er-
8FF/	.	.	.	.	.	.	.	.
8FF/	4b-/	.	4dd\	.	4b-\	-go	4dd\	-go
8FF/J	.	.	.	.	.	.	.	.
*Xtremolo	*	*	*	*	*	*	*	*
=72	=72	=72	=72	=72	=72	=72	=72	=72
*tremolo	*	*	*	*	*	*	*	*
8F\L	8a/L	.	8cc\L	.	8a\L	Si-	8cc\L	Si-
8F\	8g/	.	8b-\J	.	8g\J	-gnum	8b-\J	-gnum
8F\	8g/	.	8b-\L	.	8g/L	di-	8b-\L	di-
8F\	8f/J	.	8a\J	.	8f/J	-cens	8a\J	-cens
8F\	4f/	.	4a/	.	4f/	.	4a\	.
8F\J	.	.	.	.	.	.	.	.
*Xtremolo	*	*	*	*	*	*	*	*
=73	=73	=73	=73	=73	=73	=73	=73	=73
4F\	4cc\	.	4ee-\	.	4cc\	et	4ee-\	et
4G\	4b-\	.	4dd\	.	4b-\	cum	4dd\	cum
4A\	4a\	.	4cc\	.	4a\	ve-	4cc\	ve-
=74	=74	=74	=74	=74	=74	=74	=74	=74
8B-\L	4b-/	.	4dd\	.	4b-\	-nis-	4dd\	-ni[s]-
8F\J	.	.	.	.	.	.	.	.
8F\L	2a/	.	2cc\	.	2a\	-set	2cc\	-set
8E-\	.	.	.	.	.	.	.	.
8D\	.	.	.	.	.	.	.	.
8C\J	.	.	.	.	.	.	.	.
!	!LO:LB:g=original	!	!	!	!	!	!	!
=75	=75	=75	=75	=75	=75	=75	=75	=75
!	!	!	!	!	!	!	!LO:TX:t=P:problem=8g poprawione na 8b-	!
!	!	!	!	!	!	!	!LO:TX:a:t=h	!
4BB-/	8d/L	.	8b-\L	.	8d/	a-	8b-\	a-
!	!	!	!	!	!	!	!LO:TX:t=P:problem=8g poprawione na 8b-	!
!	!	!	!	!	!	!	!LO:TX:a:t=h	!
.	8d/J	.	8b-\J	.	8d/	-it	8b-\	-it
4r	4d/	.	4b-\	.	4d/	il-	4b-\	il-
4r	4d/	.	4b-\	.	4d/	-li.	4b-\	-li
=76	=76	=76	=76	=76	=76	=76	=76	=76
4BB-/	8b-\L	.	8dd\L	.	8b-\	a-	8dd\	a-
.	8b-\J	.	8dd\J	.	8b-\	-it	8dd\	-it
4r	4b-\	.	4dd\	.	4b-\	il-	4dd\	il-
!	!	!	!	!	!LO:TX:b:t=ver.	!	!	!
4r	4b-\	.	4dd\	.	4b-\	-li	4dd\	-li
!	!	!	!	!	!LO:PB:g=original	!	!	!
=77	=77	=77	=77	=77	=77	=77	=77	=77
4F\	4cc\	.	4ee-\	.	4cc\	et	4ee-\	et
4A\	8a\L	.	8cc\L	.	8a\L	os-	8cc\L	os-
.	8cc\	.	8ee-\	.	8cc\J	-cu-	8ee-\J	-cu-
!	!	!	!	!	!	!	!LO:TX:t=P:problem=litera t poprawiona na l	!
4F\	8b-\	.	8dd\	.	8b-\L	-la-	8dd\L	-la-
.	8a\J	.	8cc\J	.	8a\J	-tus	8cc\J	-tus
!LO:LB:g=original	!	!	!	!	!	!	!	!
=78	=78	=78	=78	=78	=78	=78	=78	=78
4BB-/	4b-\	.	4dd\	.	4b-\	eſt	4dd\	est
4r	4dd\	.	4ff\	.	4dd\	e-	4ff\	e-
4r	4b-\	.	4dd\	.	4b-\	-um	4dd\	-um
=79	=79	=79	=79	=79	=79	=79	=79	=79
4C/	8g/L	.	8een\L	.	8g/L	Di-	8een\	Di-
.	8g/J	.	8ee\J	.	8g/J	-xit	8ee\	-xit
!	!	!	!	!	!	!	!LO:LB:g=original	!
4En\	4g/	.	4ee\	.	4g/	e-	4een\	e-
4C/	4g/	.	4ee\	.	4g/	-j	4ee\	-i
=80	=80	=80	=80	=80	=80	=80	=80	=80
4F\	4a/	.	4ff\	.	4a\	Je-	4ff\	Je-
!	!	!	!LO:TX:t=P:problem=4ee- poprawione na 4ff	!	!	!	!	!
!	!	!	!LO:TX:a:t=f.	!	!	!	!	!
8F\L	4a/	.	4ff\	.	4a\	-sus	4ff\	-sus
8c\	.	.	.	.	.	.	.	.
8A\	4r	.	4r	.	4r	.	4r	.
8F\J	.	.	.	.	.	.	.	.
!	!	!	!LO:LB:g=original	!	!	!	!	!
=81	=81	=81	=81	=81	=81	=81	=81	=81
!	!	!	!	!	!LO:TX:t=P:problem=łuk nad 1	!	!	!
!	!	!	!	!	!LO:TX:t=P:problem=kreska taktowa na 1r	!	!	!
!	!	!	!	!	!LO:TX:a:t=1	!	!LO:TX:a:t=5.	!
8e-'\L	8cc/L	.	8ee-X\L	.	2.r	.	2.r	.
8d'\	8b-/	.	8dd\	.	.	.	.	.
8c'\	8a/	.	8cc\	.	.	.	.	.
8B-'\	8g/	.	8b-\	.	.	.	.	.
8A'\	8f#X/	.	8a\	.	.	.	.	.
8F#X'\J	8d/J	.	8f#X\J	.	.	.	.	.
=82	=82	=82	=82	=82	=82	=82	=82	=82
4G\	4g/	.	4g/	.	4g\	Mi-	2.r	.
4r	4g/	.	4b-/	.	4b-\	-ni-	.	.
4r	4g/	.	4g/	.	4g\	-stri	.	.
=83	=83	=83	=83	=83	=83	=83	=83	=83
4G\	4dd\	.	4dd\	.	4dd\	ve-	2.r	.
4r	8cc\L	.	8cc\L	.	8cc\L	-ro	.	.
.	8b-\	.	8b-\	.	8b-\J	du-	.	.
4r	8a\	.	8a\	.	8a\L	-xe-	.	.
.	8g\J	.	8g\J	.	8g\J	-runt.	.	.
=84	=84	=84	=84	=84	=84	=84	=84	=84
8e-'\L	8ee-'\L	.	8ee-\L	.	8ee-\	Je-	2.r	.
8d'\	8dd\	.	8dd\	.	8dd\	-sum	.	.
8c'\	8cc\	.	8cc\	.	8cc\	ad	.	.
8B-'\	8b-\	.	8b-\	.	8b-\	Prin-	.	.
8A'\	8a\	.	8a\	.	8a\	-ci-	.	.
8G'\J	8g\J	.	8g\J	.	8g\	-pes	.	.
=85	=85	=85	=85	=85	=85	=85	=85	=85
8F#X\L	8f#X/L	.	8f#X/L	.	8f#X/	Sa-	2.r	.
8G\	8g/	.	8g/	.	8g/	-cer-	.	.
8A\	8a/	.	8a/	.	8a/	-do-	.	.
8F#\J	8f#/J	.	8f#/J	.	8f#X/	-tum	.	.
4D\	4d/	.	4d/	.	4d/	.	.	.
=86	=86	=86	=86	=86	=86	=86	=86	=86
4D\	4f#X/	.	4a/	.	4f#X/	et	4a\	et
4F#X\	4a/	.	4cc\	.	4a\	a-	4cc\	a-
4D\	8g/L	.	8b-\L	.	8g/L	-it	8b-\L	-it
.	8f#/J	.	8a\J	.	8f#X/J	.	8a\J	.
!	!	!	!	!	!LO:LB:g=original	!	!	!
=87	=87	=87	=87	=87	=87	=87	=87	=87
4G\	8g/L	.	8b-\L	.	8g\L	il-	8b-\L	il-
.	8a/J	.	8cc\J	.	8a\J	.	8cc\J	.
4GG/	2b-/	.	2dd\	.	2b-\	-li	2dd\	-li
4r	.	.	.	.	.	.	.	.
=88	=88	=88	=88	=88	=88	=88	=88	=88
4GG/	4b-\	.	4dd\	.	4b-\	ad-	4dd\	ad-
8r	8cc\L	.	8ee-\L	.	8cc\L	-iu-	8ee-\L	-iu-
8G\L	8b-\	.	8dd\	.	8b-\J	-ro	8dd\J	-ro
8G\	8a\	.	8cc\	.	8a\L	te	8cc\L	te
8G\J	8g\J	.	8b-\J	.	8g\J	per	8b-\J	per
=89	=89	=89	=89	=89	=89	=89	=89	=89
4D\	4g/	.	4b-/	.	4g/	De-	4b-\	De-
8D\L	4f#X/	.	4a/	.	4f#X/	-um.	4a\	-um
8E-\	.	.	.	.	.	.	.	.
8F#X\	4r	.	4r	.	4r	.	4r	.
8D\J	.	.	.	.	.	.	.	.
=90	=90	=90	=90	=90	=90	=90	=90	=90
4D\	4f#X/	.	4a/	.	4f#X/	ut	4a\	ut
4r	8g/L	.	8b-/L	.	8g\L	di-	8b-\L	di-
.	8a/	.	8cc/J	.	8a\J	-cas	8cc\J	-cas
4r	8g/	.	8b-/L	.	8g\L	no-	8b-\L	no-
.	8f#X/J	.	8a/J	.	8f#X\J	-bis	8a\J	-bis
=91	=91	=91	=91	=91	=91	=91	=91	=91
4G\	4g/	.	4b-/	.	4g\	Si	4b-\	Si
4r	8a/L	.	8cc/L	.	8a\L	tu	8cc\L	tu
.	8b-/	.	8dd/J	.	8b-\J	ae	8dd\J	es
4r	8a/	.	8cc/L	.	8a\L	chri-	8cc\L	chri-
.	8g/J	.	8b-/J	.	8g\J	-stus.	8b-\J	-stus
=92	=92	=92	=92	=92	=92	=92	=92	=92
!	!	!	!LO:TX:a:t=e	!	!	!	!	!
4F#X\	8ee-\L	.	8ee-\L	.	8cc\	Fi-	8ee-\	Fi-
.	8dd\	.	8dd\	.	8b-\	-lius	8dd\	-lius
4r	8cc\	.	8cc\	.	8a\	De-	8cc\L	De-
.	8b-\	.	8b-\	.	8g\	-i	8b-\J	-j
4r	8a\	.	8a\	.	8f#X/	vi-	8a\L	vi-
.	8g\J	.	8g\J	.	8g/	-vi	8g\J	-vi
=93	=93	=93	=93	=93	=93	=93	=93	=93
!	!	!	!	!	!	!	!LO:TX:t=P:problem=łuk nad 1	!
!	!	!	!	!	!	!	!LO:TX:a:t=1	!
4D\	8f#X/L	.	8f#X/L	.	8f#X/	a-	2.r	.
.	8a/	.	8a/	.	8a\	-it	.	.
4r	8dd/	.	8dd/	.	8dd\	il-	.	.
.	8cc#X/J	.	8cc#X/J	.	8cc#X\	-li	.	.
!	!LO:TX:t=P:problem=mixed beam	!	!LO:TX:t=P:problem=mixed beam	!	!	!	!	!
4r	8dd\L	.	8dd\L	.	8dd\	Je-	.	.
.	8d/J	.	8d/J	.	8d/	-sus	.	.
=94	=94	=94	=94	=94	=94	=94	=94	=94
!	!LO:SIC:v:s=8en	!	!	!	!LO:SIC:v:s=8en	!	!LO:TX:a:t=adagio.	!
4AA/	8e-/L	.	8cc#X\L	.	8e-/	Tu	8cc#X\	Tu
!	!LO:SIC:v:s=8en	!	!	!	!LO:SIC:v:s=8en	!	!	!
.	8e-/J	.	8cc#\J	.	8e-/	di-	8cc#\	di-
!	!LO:SIC:v:s=2en	!	!	!	!LO:SIC:v:s=2en	!	!	!
4AA/	2e-/	.	2cc#\	.	2e-/	-xi-	2cc#\	-xi-
4AA/	.	.	.	.	.	.	.	.
=95	=95	=95	=95	=95	=95	=95	=95	=95
!	!LO:SIC:v:s=2.f#	!	!	!	!	!	!	!
2.D;\	2.f;/	.	2.dd;\	.	2f#X;/	-sti.	2dd;\	-sti
.	.	.	.	.	4r	.	4r	.
==	==	==	==	==	==	==	==	==
*-	*-	*-	*-	*-	*-	*-	*-	*-
!!!RDF**dynam: pp = pp.
!!!RDF**dynam: f = for.
!!!RDF**kern: > = above
!!!RDF**kern: < = below
!!!system-decoration: [(s1,s2)][(s3,s4)][(s5)]
!!!ENC: Katarzyna Serwa
!!!END: 2020-12-10
!!!ENC: Urszula Świątek
!!!END: 2022-03-27
